svgs/sharp-light/film.svg

<svg xmlns="http://www.w3.org/2000/svg" viewBox="0 0 512 512"><!--! Font Awesome Pro 6.6.0 by @fontawesome - https://fontawesome.com License - https://fontawesome.com/license (Commercial License) Copyright 2024 Fonticons, Inc. --><path d="M128 448l0-96 0-80 256 0 0 80 0 96-256 0zM384 240l-256 0 0-80 0-96 256 0 0 96 0 80zM96 448l-64 0 0-80 64 0 0 80zM32 336l0-64 64 0 0 64-64 0zM96 176l0 64-64 0 0-64 64 0zM96 64l0 80-64 0 0-80 64 0zM416 336l0-64 64 0 0 64-64 0zm0 112l0-80 64 0 0 80-64 0zm0-272l64 0 0 64-64 0 0-64zm64-32l-64 0 0-80 64 0 0 80zM512 32l-32 0L32 32 0 32 0 64 0 448l0 32 32 0 448 0 32 0 0-32 0-384 0-32z"/></svg>

<svg xmlns="http://www.w3.org/2000/svg" viewBox="0 0 512 512"><!--! Font Awesome Pro 6.4.2 by @fontawesome - https://fontawesome.com License - https://fontawesome.com/license (Commercial License) Copyright 2023 Fonticons, Inc. --><path d="M128 448V352 272H384v80 96H128zM384 240H128V160 64H384v96 80zM96 448H32V368H96v80zM32 336V272H96v64H32zM96 176v64H32V176H96zM96 64v80H32V64H96zM416 336V272h64v64H416zm0 112V368h64v80H416zm0-272h64v64H416V176zm64-32H416V64h64v80zM512 32H480 32 0V64 448v32H32 480h32V448 64 32z"/></svg>
